X: 19
P: No. XIX.
M: 3/4
L: 1/4
K: D
V: 1
[|\
def | {a2}g2a | {g2}f2Te/d/ | B2 ||
|: B |\
g(a/g/)(f/e/) | f(g/f/)(e/d/) | {f2}e2d | TB2A |\
e>de | {g2}f2e | d2{c}B | {B2}A2 :|
V: 2 clef=bass middle=d
[|\
cdB | AcA | cdB | A/B/cA |\
|: z |\
ea2 | dg2 | a2d | g2d |\

